images/favicon.svg

<svg width="152" height="152" viewBox="0 0 152 152" fill="none" xmlns="http://www.w3.org/2000/svg">
<g clip-path="url(#clip0_943_3533)">
<rect width="152" height="152" fill="#E84D37"/>
<path d="M76.1221 24.7094C80.2523 24.7084 84.3104 25.7697 87.8896 27.7869C91.4688 29.8041 94.4435 32.7065 96.5156 36.2032C98.5877 39.6999 99.6846 43.6681 99.6962 47.7103C99.7078 51.7525 98.6339 55.7268 96.5819 59.2348C98.0053 59.4337 99.344 60.0167 100.448 60.9183C101.552 61.8199 102.377 63.0046 102.832 64.3396C103.287 65.6746 103.353 67.1071 103.022 68.4767C102.692 69.8462 101.979 71.0987 100.962 72.0937C99.9452 73.0888 98.6655 73.7871 97.2661 74.1104C95.8667 74.4337 94.4029 74.3692 93.0389 73.9241C91.6748 73.4791 90.4643 72.6711 89.5431 71.5907C88.6218 70.5103 88.0262 69.2001 87.8229 67.807C87.5312 67.9702 87.2312 68.1251 86.9312 68.2801C86.5143 70.7917 85.1979 73.0763 83.2176 74.725C81.2372 76.3737 78.722 77.279 76.1221 77.279C73.5221 77.279 71.0069 76.3737 69.0266 74.725C67.0462 73.0763 65.7298 70.7917 65.313 68.2801C65.0129 68.1251 64.7129 67.9702 64.4212 67.807C64.2185 69.2014 63.6226 70.5129 62.7005 71.5942C61.7785 72.6756 60.5667 73.484 59.2012 73.9288C57.8358 74.3736 56.3707 74.4371 54.9704 74.1122C53.5701 73.7873 52.29 73.0869 51.2739 72.0896C50.2577 71.0923 49.5457 69.8375 49.2178 68.4661C48.8898 67.0948 48.9589 65.6611 49.4173 64.326C49.8756 62.9909 50.7051 61.8073 51.8127 60.908C52.9202 60.0087 54.262 59.4293 55.6873 59.2348C53.6363 55.7286 52.5624 51.7566 52.5729 47.7164C52.5834 43.6763 53.6781 39.7098 55.7473 36.2138C57.8165 32.7178 60.7876 29.815 64.3633 27.7961C67.9391 25.7771 71.9939 24.7127 76.1221 24.7094ZM76.1221 19C71.4944 18.9972 66.9314 20.0638 62.8045 22.113C58.6776 24.1622 55.1034 27.136 52.3728 30.7925C49.6421 34.449 47.8322 38.6849 47.0903 43.1553C46.3485 47.6257 46.6956 52.2044 48.1034 56.5188C45.3751 58.6476 43.591 61.7245 43.1226 65.1085C42.6543 68.4926 43.5379 71.923 45.5893 74.6855C47.6408 77.4479 50.702 79.3294 54.1354 79.9382C57.5689 80.5469 61.1099 79.836 64.0212 77.9534C65.5932 79.5499 67.478 80.8199 69.5629 81.6873C71.6478 82.5547 73.8899 83.0017 76.1554 83.0017C78.4209 83.0017 80.6631 82.5547 82.748 81.6873C84.8328 80.8199 86.7176 79.5499 88.2896 77.9534C91.202 79.7271 94.6933 80.3538 98.0593 79.7071C101.425 79.0604 104.415 77.1885 106.427 74.469C108.438 71.7494 109.32 68.3846 108.896 65.0533C108.472 61.722 106.772 58.6721 104.141 56.5188C105.549 52.2044 105.896 47.6257 105.154 43.1553C104.412 38.6849 102.602 34.449 99.8714 30.7925C97.1407 27.136 93.5665 24.1622 89.4396 22.113C85.3127 20.0638 80.7497 18.9972 76.1221 19Z" fill="white"/>
<path d="M95.4818 83.2795C93.187 83.2745 90.9177 82.8081 88.8146 81.9092C88.5063 82.1539 88.1813 82.3741 87.8562 82.6025L88.2979 83.0266L85.0477 86.2076L83.6559 84.8455C83.0809 85.0657 82.4975 85.2614 81.8975 85.4327L83.8643 87.3576L80.6224 90.5385L77.3555 87.3576L78.6472 86.0934C77.818 86.1969 76.9831 86.2514 76.1471 86.2565C75.3362 86.2547 74.5262 86.2029 73.7219 86.1015L75.0053 87.3576L71.7551 90.5385L68.5049 87.3576L70.455 85.449C69.8617 85.2827 69.2776 85.0867 68.7049 84.8618L67.3048 86.2076L64.0212 83.0266L64.4296 82.627C64.0879 82.3904 63.7545 82.162 63.4295 81.9092C61.3265 82.8081 59.0572 83.2745 56.7624 83.2795C56.5957 83.2795 56.429 83.2795 56.2623 83.2795C56.1991 83.724 56.2448 84.1769 56.3957 84.6008L73.3802 131.189C73.3988 131.245 73.4211 131.3 73.4469 131.352C73.4696 131.409 73.4975 131.464 73.5302 131.516C73.5886 131.63 73.6552 131.736 73.7219 131.842L73.7969 131.948C73.8995 132.082 74.0138 132.208 74.1386 132.323L74.2219 132.388L74.547 132.633L74.697 132.715C74.8123 132.777 74.9321 132.832 75.0553 132.878H75.147L75.4804 132.959H75.6137C75.9224 133.014 76.2384 133.014 76.5471 132.959H76.6888L77.0138 132.878H77.1555C77.2753 132.83 77.3922 132.775 77.5055 132.715L77.6555 132.625C77.7725 132.558 77.8815 132.479 77.9805 132.388L78.0722 132.323C78.1948 132.206 78.3089 132.08 78.4139 131.948L78.4806 131.842C78.5551 131.738 78.622 131.629 78.6806 131.516L78.8306 131.189L95.8485 84.5763C96.0033 84.1533 96.049 83.6995 95.9818 83.255C95.8151 83.255 95.6901 83.2795 95.4818 83.2795ZM83.8143 96.0277L80.5641 99.2086L77.3555 96.0277L80.5974 92.8467L83.8143 96.0277ZM72.9052 100.359L76.1554 97.1777L79.4056 100.359L76.1554 103.54L72.9052 100.359ZM79.4056 109.029L76.1554 112.21L72.9052 109.029L76.1554 105.848L79.4056 109.029ZM76.1554 88.5158L79.4056 91.6967L76.1554 94.8532L72.9052 91.6722L76.1554 88.5158ZM74.9803 96.0277L71.7301 99.2086L68.4799 96.0277L71.7301 92.8467L74.9803 96.0277ZM62.5544 84.4947L62.8711 84.1848L66.1214 87.3576L64.2629 89.1438L62.5544 84.4947ZM64.8546 90.8811L67.2714 88.5158L70.5133 91.6967L67.3048 94.8532L65.813 93.3932L64.8546 90.8811ZM67.2131 97.3001L67.3048 97.2103L70.5467 100.391L68.9216 102.023L67.2131 97.3001ZM70.6883 106.884L69.5049 103.621L71.6968 101.484L74.947 104.665L71.7301 107.903L70.6883 106.884ZM73.5469 114.73L71.9884 110.472L74.947 113.36L73.5469 114.73ZM76.0887 121.712L74.1636 116.426L76.1221 114.51L78.0305 116.378L76.0887 121.712ZM78.6556 114.681L77.3555 113.36L80.1974 110.57L78.6556 114.681ZM81.5225 106.99L80.5807 107.903L77.3555 104.69L80.5974 101.517L82.7392 103.605L81.5225 106.99ZM83.3726 101.908L81.7975 100.359L85.0477 97.1777V97.2185L83.3726 101.908ZM86.4311 93.5156L85.0144 94.8532L81.7641 91.6722L85.0144 88.4913L87.3562 90.8321L86.4311 93.5156ZM87.9979 89.1438L86.1894 87.3657L89.4397 84.1848L89.7064 84.4458L87.9979 89.1438Z" fill="white"/>
</g>
<defs>
<clipPath id="clip0_943_3533">
<rect width="152" height="152" rx="76" fill="white"/>
</clipPath>
</defs>
</svg>

<svg xmlns="http://www.w3.org/2000/svg" width="152" height="152" fill="none"><g clip-path="url(#a)"><path fill="#E84D37" d="M0 0h152v152H0z"/><path fill="#fff" d="M76.122 24.71a23.966 23.966 0 0 1 11.768 3.077 23.325 23.325 0 0 1 8.626 8.416 22.69 22.69 0 0 1 3.18 11.507 22.686 22.686 0 0 1-3.114 11.525 7.824 7.824 0 0 1 3.866 1.683 7.575 7.575 0 0 1 2.384 3.422 7.414 7.414 0 0 1 .19 4.137 7.53 7.53 0 0 1-2.06 3.617 7.79 7.79 0 0 1-3.696 2.016 7.903 7.903 0 0 1-4.227-.186 7.75 7.75 0 0 1-3.496-2.333 7.5 7.5 0 0 1-1.72-3.784c-.292.163-.592.318-.892.473a10.664 10.664 0 0 1-3.713 6.445 11.094 11.094 0 0 1-7.096 2.554c-2.6 0-5.115-.905-7.095-2.554a10.663 10.663 0 0 1-3.714-6.445c-.3-.155-.6-.31-.892-.473a7.5 7.5 0 0 1-1.72 3.787 7.75 7.75 0 0 1-3.5 2.335 7.903 7.903 0 0 1-4.23.183 7.789 7.789 0 0 1-3.697-2.022 7.534 7.534 0 0 1-2.056-3.624 7.422 7.422 0 0 1 .2-4.14 7.574 7.574 0 0 1 2.395-3.418 7.825 7.825 0 0 1 3.874-1.673 22.686 22.686 0 0 1-3.114-11.519 22.69 22.69 0 0 1 3.174-11.502 23.324 23.324 0 0 1 8.616-8.418 23.965 23.965 0 0 1 11.76-3.087Zm0-5.71a29.916 29.916 0 0 0-13.318 3.113 29.237 29.237 0 0 0-10.431 8.68 28.443 28.443 0 0 0-5.283 12.362 28.183 28.183 0 0 0 1.013 13.364c-2.728 2.129-4.512 5.206-4.98 8.59a13.05 13.05 0 0 0 2.466 9.577c2.052 2.762 5.113 4.643 8.546 5.252a13.792 13.792 0 0 0 9.886-1.985 16.867 16.867 0 0 0 5.542 3.734 17.168 17.168 0 0 0 6.592 1.315c2.266 0 4.508-.447 6.593-1.315a16.868 16.868 0 0 0 5.542-3.734 13.798 13.798 0 0 0 9.77 1.754c3.365-.647 6.355-2.518 8.367-5.238a13.051 13.051 0 0 0 2.469-9.416c-.424-3.331-2.124-6.38-4.755-8.534a28.178 28.178 0 0 0 1.013-13.364 28.445 28.445 0 0 0-5.283-12.363 29.238 29.238 0 0 0-10.431-8.679A29.916 29.916 0 0 0 76.122 19Z"/><path fill="#fff" d="M95.482 83.28a17.064 17.064 0 0 1-6.667-1.37c-.309.244-.634.464-.959.693l.442.424-3.25 3.18-1.392-1.361c-.575.22-1.159.415-1.759.587l1.967 1.925-3.242 3.18-3.266-3.18 1.291-1.265c-.829.104-1.664.158-2.5.163a19.74 19.74 0 0 1-2.425-.154l1.283 1.256-3.25 3.18-3.25-3.18 1.95-1.909a18.3 18.3 0 0 1-1.75-.587l-1.4 1.346-3.284-3.181.409-.4c-.342-.237-.676-.465-1-.718a17.063 17.063 0 0 1-6.668 1.37h-.5c-.063.445-.017.898.134 1.322l16.984 46.588c.019.056.041.111.067.163.023.057.05.112.083.164.059.114.125.22.192.326l.075.106c.103.134.217.26.342.375l.083.065.325.245.15.082a2.9 2.9 0 0 0 .358.163h.092l.333.081h.134c.308.055.624.055.933 0h.142l.325-.081h.142a3.65 3.65 0 0 0 .35-.163l.15-.09c.116-.067.225-.146.325-.237l.091-.065c.123-.117.237-.243.342-.375l.067-.106c.074-.104.141-.213.2-.326l.15-.327 17.017-46.613c.155-.423.201-.876.134-1.321-.167 0-.292.025-.5.025ZM83.814 96.028l-3.25 3.18-3.208-3.18 3.241-3.181 3.217 3.18Zm-10.909 4.331 3.25-3.181 3.25 3.181-3.25 3.181-3.25-3.181Zm6.5 8.67-3.25 3.181-3.25-3.181 3.25-3.181 3.25 3.181Zm-3.25-20.513 3.25 3.18-3.25 3.157-3.25-3.18 3.25-3.157Zm-1.175 7.512-3.25 3.18-3.25-3.18 3.25-3.181 3.25 3.18ZM62.554 84.495l.317-.31 3.25 3.173-1.858 1.786-1.709-4.65Zm2.3 6.386 2.417-2.365 3.242 3.18-3.208 3.157-1.492-1.46-.958-2.512Zm2.36 6.42.09-.09 3.243 3.18-1.625 1.632-1.709-4.723Zm3.474 9.583-1.183-3.263 2.192-2.137 3.25 3.181-3.217 3.238-1.042-1.019Zm2.859 7.846-1.559-4.258 2.959 2.888-1.4 1.37Zm2.542 6.982-1.925-5.286 1.958-1.916 1.909 1.868-1.942 5.334Zm2.567-7.031-1.3-1.321 2.841-2.79-1.541 4.111Zm2.866-7.691-.941.913-3.225-3.213 3.241-3.173 2.142 2.088-1.217 3.385Zm1.85-5.082-1.575-1.549 3.25-3.181v.04l-1.674 4.69Zm3.06-8.392-1.418 1.337-3.25-3.18 3.25-3.182 2.342 2.341-.925 2.684Zm1.566-4.372-1.809-1.778 3.25-3.181.267.26-1.708 4.699Z"/></g><defs><clipPath id="a"><rect width="152" height="152" fill="#fff" rx="76"/></clipPath></defs></svg>
